assets/icons/sidebar/right-filled.svg

<?xml version="1.0" encoding="UTF-8" standalone="no"?>
<svg
   viewBox="0 0 24 24"
   width="24"
   height="24"
   version="1.1"
   id="svg22"
   sodipodi:docname="right-filled.svg"
   inkscape:version="1.2 (1:1.2.1+202207142221+cd75a1ee6d)"
   xmlns:inkscape="http://www.inkscape.org/namespaces/inkscape"
   xmlns:sodipodi="http://sodipodi.sourceforge.net/DTD/sodipodi-0.dtd"
   xmlns="http://www.w3.org/2000/svg"
   xmlns:svg="http://www.w3.org/2000/svg"
   xmlns:rdf="http://www.w3.org/1999/02/22-rdf-syntax-ns#"
   xmlns:cc="http://creativecommons.org/ns#"
   xmlns:dc="http://purl.org/dc/elements/1.1/">
  <metadata
     id="metadata28">
    <rdf:RDF>
      <cc:Work
         rdf:about="">
        <dc:format>image/svg+xml</dc:format>
        <dc:type
           rdf:resource="http://purl.org/dc/dcmitype/StillImage" />
      </cc:Work>
    </rdf:RDF>
  </metadata>
  <defs
     id="defs26" />
  <sodipodi:namedview
     pagecolor="#ffffff"
     bordercolor="#666666"
     borderopacity="1"
     objecttolerance="10"
     gridtolerance="10"
     guidetolerance="10"
     inkscape:pageopacity="0"
     inkscape:pageshadow="2"
     inkscape:window-width="1920"
     inkscape:window-height="1043"
     id="namedview24"
     showgrid="true"
     inkscape:zoom="19.445436"
     inkscape:cx="23.141677"
     inkscape:cy="9.7195044"
     inkscape:window-x="0"
     inkscape:window-y="0"
     inkscape:window-maximized="1"
     inkscape:current-layer="g6"
     inkscape:pagecheckerboard="0"
     inkscape:showpageshadow="2"
     inkscape:deskcolor="#d1d1d1">
    <inkscape:grid
       type="xygrid"
       id="grid1448" />
    <inkscape:grid
       type="xygrid"
       id="grid824"
       dotted="true"
       spacingx="0.5"
       spacingy="0.5"
       empspacing="10" />
  </sodipodi:namedview>
  <g
     color="#000000"
     fill="#808080"
     id="g6">
    <path
       id="path352"
       style="color:#000000;fill:#808080;fill-opacity:1"
       d="m 18.544922,3 c 0.968579,0.00898 1.71782,0.07327 2.33789,0.4453125 0.413381,0.2480283 0.719939,0.6559085 0.888672,1.1621094 0.130576,0.3917284 0.195881,0.8472582 0.21875,1.3925781 h -5.990234 -1 -12.990234 c 0.022869,-0.5453199 0.088172,-1.0008497 0.21875,-1.3925781 0.168732,-0.5062009 0.47529,-0.9140811 0.888672,-1.1621094 0.826759,-0.4960563 1.882816,-0.4453125 3.382812,-0.4453125 h 11 c 0.374999,0 0.722062,-0.00299 1.044922,0 z m 3.455078,4 v 10.5 c 0,0.777775 -0.05978,1.386378 -0.228516,1.892578 -0.168733,0.506202 -0.475291,0.914081 -0.888672,1.16211 -0.82676,0.496056 -1.882817,0.445312 -3.382812,0.445312 h -1.5 v -14 z m -7,0 v 14 h -8.5 c -1.499996,0 -2.556052,0.05074 -3.382812,-0.445312 -0.413382,-0.248029 -0.71994,-0.655908 -0.888672,-1.16211 -0.168734,-0.5062 -0.228516,-1.114803 -0.228516,-1.892578 v -10.5 z" />
  </g>
</svg>

<svg width="24" height="24" xmlns="http://www.w3.org/2000/svg"><path style="color:#000;fill:gray;fill-opacity:1" d="M18.545 3c.969.009 1.718.073 2.338.445.413.248.72.656.888 1.162.131.392.196.848.22 1.393H2.01c.023-.545.088-1 .219-1.393.168-.506.475-.914.888-1.162C3.944 2.95 5 3 6.5 3h11c.375 0 .722-.003 1.045 0zM22 7v10.5c0 .778-.06 1.386-.229 1.893-.168.506-.475.914-.888 1.162C20.056 21.05 19 21 17.5 21H16V7zm-7 0v14H6.5c-1.5 0-2.556.05-3.383-.445-.413-.248-.72-.656-.888-1.162C2.059 18.886 2 18.278 2 17.5V7z" color="#000" fill="gray"/></svg>
